T: Stansted Is A ****
M: 4/4
L: 1/8
K: Amaj
AECE E/E/FEC | A,{C}A,{G,}A,B, CEFA | B2 B/{d}B/{A}B eAce | f{a}f{e}fg afed | Bc{d}cB{d} BAEC |
A,{C}A,{G,}A,B, A,CEA |1 c3d AB{d}BA | EFAB Bc{d}cB:|2 Bc2d AB{c}BA | EFAB Bc{d}cA|]
[F3A3]([FA] [FA])[GA]AB | B([ce][ce])([ce] [ce])Adc | B/B/BB(B B)cde | f/{a}f/{e}f (3agf {a}fecA |[D3A3]([DA] [DA])[EA][FA][GA] |
[GA](AA)(A A)B{d}BA |1 F(GG)(G G)AB(A | A)Bcd zczA:|2  G3(G G)AB(A | A)Bc(d d)cBc|]
